X:116
T:Jack in his element
%%VWML:SBG-1-2-691-0
F:http://www.vwml.org/record/SBG/1/2/691
Z:Original Sibelius transcriptions by M. & S. Graebe
M:2/4
I:linebreak $
K:G
V:1 treble nm="P1"
V:1
 d2 | B2 e2 d2(cB) | A2 GF G2 d2 | (cB) (AG) F2 G2 | A4 z2 A2 |$ B2 AG c2 BA | %6
 d2 cB !fermata!e4 z d | cB AG B2 A2 | G4 z2 x2 | %9

